third_party/noto/noto_2/emoji_u1f494.svg

<svg enable-background="new 0 0 128 128" viewBox="0 0 128 128" xmlns="http://www.w3.org/2000/svg"><radialGradient id="c" cx="61.069" cy="29.274" r="66.35" gradientUnits="userSpaceOnUse"><stop stop-color="#E53935" offset=".4748"/><stop stop-color="#C62828" offset=".913"/></radialGradient><path d="m37.33 40.17 22.31-16.95s-13.33-14.85-31.28-9.27c-31.6 9.83-28.78 48.95-13.22 69.07 10.95 14.16 46.51 40.64 46.51 40.64l-23.82-38 30.83-19.33-31.33-26.16z" fill="url(#c)"/><radialGradient id="b" cx="64.225" cy="28.599" r="63.486" gradientUnits="userSpaceOnUse"><stop stop-color="#E53935" offset=".4748"/><stop stop-color="#C62828" offset=".913"/></radialGradient><path d="m64.05 123.92s0.05-0.02 0.02-0.05c-0.01 0.02-0.03 0.03-0.04 0.05h0.02z" fill="url(#b)"/><radialGradient id="a" cx="63.467" cy="28.599" r="63.716" gradientUnits="userSpaceOnUse"><stop stop-color="#E53935" offset=".4748"/><stop stop-color="#C62828" offset=".913"/></radialGradient><path d="m100 14c-8.87-3.24-17-0.82-23.28 2.86-12.12 7.48-19.89 21.81-19.89 21.81l33.5 23.83-35.16 30.83s8.03 26.46 9.19 30.21c4.52-3.01 33.97-23.37 48.4-42.03 15.55-20.13 17.99-56.26-12.76-67.51z" fill="url(#a)"/><path d="m64 123.89c0 0.01 0.01 0.01 0.02 0.02 0-0.01 0.01-0.02 0.05-0.05v0.01c0.09-0.11 0.19-0.22 0.29-0.33-0.14 0.1-0.26 0.17-0.35 0.23v0.12z" fill="#fff"/><path d="m64.02 123.91c0.01 0.01 0.01 0.01 0 0 0.02-0.01 0.03-0.03 0.05-0.04v-0.01c-0.04 0.03-0.04 0.05-0.05 0.05z" fill="#fff"/><path d="m64.02 123.91c-0.01 0-0.02-0.01-0.02-0.02 0 0.02 0.01 0.03 0.02 0.02-0.01 0.01 0 0.01 0 0z" fill="#fff"/><g fill="#424242" opacity=".2"><path d="m36.5 15.7c8.36 0 15.08 4.48 18.49 7.29l-19.47 14.79c-0.73 0.55-1.16 1.41-1.18 2.32s0.38 1.79 1.08 2.37l28.16 23.52-27.34 17.13c-1.4 0.88-1.83 2.73-0.95 4.13l14.86 23.7c-11.17-8.9-26.29-21.57-32.63-29.77-9.55-12.34-13.2-30.54-8.87-44.25 3.14-9.94 10.26-16.89 20.6-20.11 2.39-0.74 4.83-1.12 7.25-1.12m0-3c-2.58 0-5.3 0.37-8.14 1.26-31.6 9.82-28.78 48.94-13.22 69.06 10.95 14.16 46.51 40.64 46.51 40.64l-23.82-38 30.83-19.33-31.33-26.16 22.31-16.95s-9.45-10.52-23.14-10.52z"/><path d="m64.07 123.87c-0.01 0.02-0.03 0.03-0.04 0.05 0.01 0 0.02 0.01 0.02 0.01s0.04-0.03 0.02-0.06z"/><path d="m91.55 15.48c2.5 0 5 0.45 7.42 1.34 10.53 3.85 17.62 11.2 20.52 21.25 3.75 12.99 0.08 29.7-9.12 41.6-12.23 15.81-35.67 32.98-44.35 39.07-2.07-6.79-5.97-19.65-7.43-24.43l33.71-29.56c0.69-0.6 1.06-1.49 1.02-2.41-0.05-0.92-0.51-1.76-1.26-2.29l-31.23-22.22c2.64-4.18 8.94-13.15 17.44-18.4 4.48-2.62 8.95-3.95 13.28-3.95m0-3c-5.55 0-10.61 1.91-14.83 4.37-12.12 7.48-19.89 21.81-19.89 21.81l33.5 23.83-35.16 30.84s8.03 26.46 9.19 30.21c4.52-3.01 33.97-23.37 48.4-42.03 15.56-20.13 18-56.26-12.75-67.51-2.92-1.06-5.75-1.52-8.46-1.52z"/><path d="m64.35 124zm0-0.46c-0.14 0.1-0.26 0.17-0.35 0.23v0.12c0 0.01 0.01 0.01 0.02 0.02 0-0.01 0.01-0.02 0.05-0.05v0.01c0.09-0.11 0.19-0.22 0.28-0.33z"/><path d="m64.07 123.87c-0.03 0.02-0.04 0.04-0.05 0.05h0.01c0.01-0.02 0.03-0.03 0.04-0.05z"/><path d="m64 123.89c0 0.02 0.01 0.03 0.01 0.03s0.01-0.01 0.01-0.01c-0.01 0-0.02-0.01-0.02-0.02z"/></g></svg>

<svg width="128" height="128" style="enable-background:new 0 0 128 128;" xmlns="http://www.w3.org/2000/svg" xmlns:xlink="http://www.w3.org/1999/xlink">
  <g id="图层_3">
    <g>
      <radialGradient id="SVGID_1_" cx="61.0694" cy="29.2742" gradientUnits="userSpaceOnUse" r="66.3499">
        <stop offset="0.4748" style="stop-color:#E53935"/>
        <stop offset="0.913" style="stop-color:#C62828"/>
      </radialGradient>
      <path d="M37.33,40.17l22.31-16.95c0,0-13.33-14.85-31.28-9.27C-3.24,23.78-0.42,62.9,15.14,83.02 c10.95,14.16,46.51,40.64,46.51,40.64l-23.82-38l30.83-19.33L37.33,40.17z" style="fill:url(#SVGID_1_);"/>
      <radialGradient id="SVGID_3_" cx="64.225" cy="28.5988" gradientUnits="userSpaceOnUse" r="63.486">
        <stop offset="0.4748" style="stop-color:#E53935"/>
        <stop offset="0.913" style="stop-color:#C62828"/>
      </radialGradient>
      <path d="M64.05,123.92c0,0,0.05-0.02,0.02-0.05c-0.01,0.02-0.03,0.03-0.04,0.05 C64.04,123.92,64.05,123.92,64.05,123.92z" style="fill:url(#SVGID_3_);"/>
      <radialGradient id="SVGID_4_" cx="63.4669" cy="28.5988" gradientUnits="userSpaceOnUse" r="63.7155">
        <stop offset="0.4748" style="stop-color:#E53935"/>
        <stop offset="0.913" style="stop-color:#C62828"/>
      </radialGradient>
      <path d="M100,14c-8.87-3.24-17-0.82-23.28,2.86c-12.12,7.48-19.89,21.81-19.89,21.81l33.5,23.83 L55.17,93.33c0,0,8.03,26.46,9.19,30.21c4.52-3.01,33.97-23.37,48.4-42.03C128.31,61.38,130.75,25.25,100,14z" style="fill:url(#SVGID_4_);"/>
      <path d="M64,123.89c0,0.01,0.01,0.01,0.02,0.02c0-0.01,0.01-0.02,0.05-0.05c0,0,0,0,0,0.01 c0.09-0.11,0.19-0.22,0.29-0.33c-0.14,0.1-0.26,0.17-0.35,0.23V123.89z" style="fill:#FFFFFF;"/>
      <path d="M64.02,123.91C64.03,123.92,64.03,123.92,64.02,123.91c0.02-0.01,0.03-0.03,0.05-0.04 c0,0,0,0,0-0.01C64.03,123.89,64.03,123.91,64.02,123.91z" style="fill:#FFFFFF;"/>
      <path d="M64.02,123.91c-0.01,0-0.02-0.01-0.02-0.02C64,123.91,64.01,123.92,64.02,123.91 C64.01,123.92,64.02,123.92,64.02,123.91z" style="fill:#FFFFFF;"/>
    </g>
    <g style="opacity:0.2;">
      <path d="M36.5,15.7c8.36,0,15.08,4.48,18.49,7.29L35.52,37.78c-0.73,0.55-1.16,1.41-1.18,2.32 c-0.02,0.91,0.38,1.79,1.08,2.37l28.16,23.52L36.24,83.12c-1.4,0.88-1.83,2.73-0.95,4.13l14.86,23.7 c-11.17-8.9-26.29-21.57-32.63-29.77C7.97,68.84,4.32,50.64,8.65,36.93c3.14-9.94,10.26-16.89,20.6-20.11 C31.64,16.08,34.08,15.7,36.5,15.7 M36.5,12.7c-2.58,0-5.3,0.37-8.14,1.26C-3.24,23.78-0.42,62.9,15.14,83.02 c10.95,14.16,46.51,40.64,46.51,40.64l-23.82-38l30.83-19.33L37.33,40.17l22.31-16.95C59.64,23.22,50.19,12.7,36.5,12.7 L36.5,12.7z" style="fill:#424242;"/>
      <path d="M64.07,123.87c-0.01,0.02-0.03,0.03-0.04,0.05c0.01,0,0.02,0.01,0.02,0.01 S64.09,123.9,64.07,123.87L64.07,123.87z" style="fill:#424242;"/>
      <path d="M91.55,15.48c2.5,0,5,0.45,7.42,1.34c10.53,3.85,17.62,11.2,20.52,21.25 c3.75,12.99,0.08,29.7-9.12,41.6c-12.23,15.81-35.67,32.98-44.35,39.07c-2.07-6.79-5.97-19.65-7.43-24.43l33.71-29.56 c0.69-0.6,1.06-1.49,1.02-2.41c-0.05-0.92-0.51-1.76-1.26-2.29L60.83,37.83c2.64-4.18,8.94-13.15,17.44-18.4 C82.75,16.81,87.22,15.48,91.55,15.48 M91.55,12.48c-5.55,0-10.61,1.91-14.83,4.37c-12.12,7.48-19.89,21.81-19.89,21.81 l33.5,23.83L55.17,93.33c0,0,8.03,26.46,9.19,30.21c4.52-3.01,33.97-23.37,48.4-42.03c15.56-20.13,18-56.26-12.75-67.51 C97.09,12.94,94.26,12.48,91.55,12.48L91.55,12.48z" style="fill:#424242;"/>
      <path d="M64.35,124L64.35,124L64.35,124z M64.35,123.54c-0.14,0.1-0.26,0.17-0.35,0.23v0.12 c0,0.01,0.01,0.01,0.02,0.02c0-0.01,0.01-0.02,0.05-0.05c0,0,0,0,0,0.01C64.16,123.76,64.26,123.65,64.35,123.54L64.35,123.54z" style="fill:#424242;"/>
      <path d="M64.07,123.87c-0.03,0.02-0.04,0.04-0.05,0.05c0,0,0.01,0,0.01,0 C64.04,123.9,64.06,123.89,64.07,123.87C64.07,123.87,64.07,123.87,64.07,123.87L64.07,123.87z" style="fill:#424242;"/>
      <path d="M64,123.89c0,0.02,0.01,0.03,0.01,0.03s0.01-0.01,0.01-0.01C64.01,123.91,64,123.9,64,123.89 L64,123.89z" style="fill:#424242;"/>
    </g>
  </g>
  <g id="Layer_2_x5F_复制" style="display:none;">
    <g style="display:inline;opacity:0.3;">
      <g style="opacity:0.6;">
        <circle cx="64" cy="64" r="28" style="opacity:0.61;fill:none;stroke:#000000;stroke-width:0.2625;stroke-miterlimit:10;"/>
        <line style="opacity:0.61;fill:none;stroke:#000000;stroke-width:0.25;stroke-miterlimit:10;" x1="84" x2="84" y1="0" y2="128"/>
        <line style="opacity:0.61;fill:none;stroke:#000000;stroke-width:0.25;stroke-miterlimit:10;" x1="44" x2="44" y1="0" y2="128"/>
        <line style="opacity:0.61;fill:none;stroke:#000000;stroke-width:0.25;stroke-miterlimit:10;" x1="64" x2="64" y1="0" y2="128"/>
        <line style="opacity:0.61;fill:none;stroke:#000000;stroke-width:0.25;stroke-miterlimit:10;" x1="128" x2="0" y1="64" y2="64"/>
        <line style="opacity:0.61;fill:none;stroke:#000000;stroke-width:0.25;stroke-miterlimit:10;" x1="128" x2="0" y1="44" y2="44"/>
        <line style="opacity:0.61;fill:none;stroke:#000000;stroke-width:0.25;stroke-miterlimit:10;" x1="128" x2="0" y1="83.75" y2="83.75"/>
        <line style="opacity:0.61;fill:none;stroke:#000000;stroke-width:0.25;stroke-miterlimit:10;" x1="128" x2="0" y1="128" y2="0"/>
        <line style="opacity:0.61;fill:none;stroke:#000000;stroke-width:0.25;stroke-miterlimit:10;" x1="0" x2="128" y1="128" y2="0"/>
        <g style="opacity:0.61;">
          <path d="M64,4.26c32.94,0,59.74,26.8,59.74,59.74S96.94,123.74,64,123.74S4.26,96.94,4.26,64S31.06,4.26,64,4.26 M64,4 C30.86,4,4,30.86,4,64c0,33.14,26.86,60,60,60c33.14,0,60-26.86,60-60C124,30.86,97.14,4,64,4L64,4z"/>
        </g>
        <path d="M107.97,115.97H20.03 c-4.42,0-8.03-3.61-8.03-8.03V20.03c0-4.42,3.61-8.03,8.03-8.03h87.94c4.42,0,8.03,3.61,8.03,8.03v87.91 C116,112.36,112.39,115.97,107.97,115.97z" style="opacity:0.61;fill:none;stroke:#000000;stroke-width:0.2578;stroke-miterlimit:10;"/>
        <path d="M99.75,124H28 c-4.4,0-8-3.6-8-8V12c0-4.4,3.6-8,8-8h71.75c4.4,0,8,3.6,8,8v104C107.75,120.4,104.15,124,99.75,124z" style="opacity:0.61;fill:none;stroke:#000000;stroke-width:0.2567;stroke-miterlimit:10;"/>
        <path d="M113.77,108H14.23 C8.6,108,4,103.4,4,97.77V30.28c0-5.63,4.6-10.23,10.23-10.23h99.54c5.63,0,10.23,4.6,10.23,10.23v67.48 C124,103.4,119.4,108,113.77,108z" style="opacity:0.61;fill:none;stroke:#000000;stroke-width:0.2627;stroke-miterlimit:10;"/>
      </g>
      <g>
        <g style="opacity:0.2;">
          <defs>
            <rect id="SVGID_2_" height="128" style="opacity:0.2;" width="128"/>
          </defs>
          <clipPath id="SVGID_5_">
            <use style="overflow:visible;" xlink:href="#SVGID_2_"/>
          </clipPath>
          <g style="clip-path:url(#SVGID_5_);">
            <g>
              <line style="fill:none;stroke:#000000;stroke-width:0.25;stroke-miterlimit:10;" x1="-28" x2="-28" y1="160" y2="-32"/>
              <line style="fill:none;stroke:#000000;stroke-width:0.25;stroke-miterlimit:10;" x1="-24" x2="-24" y1="160" y2="-32"/>
              <line style="fill:none;stroke:#000000;stroke-width:0.25;stroke-miterlimit:10;" x1="-20" x2="-20" y1="160" y2="-32"/>
              <line style="fill:none;stroke:#000000;stroke-width:0.25;stroke-miterlimit:10;" x1="-16" x2="-16" y1="160" y2="-32"/>
              <line style="fill:none;stroke:#000000;stroke-width:0.25;stroke-miterlimit:10;" x1="-12" x2="-12" y1="160" y2="-32"/>
              <line style="fill:none;stroke:#000000;stroke-width:0.25;stroke-miterlimit:10;" x1="-8" x2="-8" y1="160" y2="-32"/>
              <line style="fill:none;stroke:#000000;stroke-width:0.25;stroke-miterlimit:10;" x1="-4" x2="-4" y1="160" y2="-32"/>
              <line style="fill:none;stroke:#000000;stroke-width:0.25;stroke-miterlimit:10;" x1="0" x2="0" y1="160" y2="-32"/>
              <line style="fill:none;stroke:#000000;stroke-width:0.25;stroke-miterlimit:10;" x1="4" x2="4" y1="160" y2="-32"/>
              <line style="fill:none;stroke:#000000;stroke-width:0.25;stroke-miterlimit:10;" x1="8" x2="8" y1="160" y2="-32"/>
              <line style="fill:none;stroke:#000000;stroke-width:0.25;stroke-miterlimit:10;" x1="12" x2="12" y1="160" y2="-32"/>
              <line style="fill:none;stroke:#000000;stroke-width:0.25;stroke-miterlimit:10;" x1="16" x2="16" y1="160" y2="-32"/>
              <line style="fill:none;stroke:#000000;stroke-width:0.25;stroke-miterlimit:10;" x1="20" x2="20" y1="160" y2="-32"/>
              <line style="fill:none;stroke:#000000;stroke-width:0.25;stroke-miterlimit:10;" x1="24" x2="24" y1="160" y2="-32"/>
              <line style="fill:none;stroke:#000000;stroke-width:0.25;stroke-miterlimit:10;" x1="28" x2="28" y1="160" y2="-32"/>
              <line style="fill:none;stroke:#000000;stroke-width:0.25;stroke-miterlimit:10;" x1="32" x2="32" y1="160" y2="-32"/>
              <line style="fill:none;stroke:#000000;stroke-width:0.25;stroke-miterlimit:10;" x1="36" x2="36" y1="160" y2="-32"/>
              <line style="fill:none;stroke:#000000;stroke-width:0.25;stroke-miterlimit:10;" x1="40" x2="40" y1="160" y2="-32"/>
              <line style="fill:none;stroke:#000000;stroke-width:0.25;stroke-miterlimit:10;" x1="44" x2="44" y1="160" y2="-32"/>
              <line style="fill:none;stroke:#000000;stroke-width:0.25;stroke-miterlimit:10;" x1="48" x2="48" y1="160" y2="-32"/>
              <line style="fill:none;stroke:#000000;stroke-width:0.25;stroke-miterlimit:10;" x1="52" x2="52" y1="160" y2="-32"/>
              <line style="fill:none;stroke:#000000;stroke-width:0.25;stroke-miterlimit:10;" x1="56" x2="56" y1="160" y2="-32"/>
              <line style="fill:none;stroke:#000000;stroke-width:0.25;stroke-miterlimit:10;" x1="60" x2="60" y1="160" y2="-32"/>
              <line style="fill:none;stroke:#000000;stroke-width:0.25;stroke-miterlimit:10;" x1="64" x2="64" y1="160" y2="-32"/>
              <line style="fill:none;stroke:#000000;stroke-width:0.25;stroke-miterlimit:10;" x1="68" x2="68" y1="160" y2="-32"/>
              <line style="fill:none;stroke:#000000;stroke-width:0.25;stroke-miterlimit:10;" x1="72" x2="72" y1="160" y2="-32"/>
              <line style="fill:none;stroke:#000000;stroke-width:0.25;stroke-miterlimit:10;" x1="76" x2="76" y1="160" y2="-32"/>
              <line style="fill:none;stroke:#000000;stroke-width:0.25;stroke-miterlimit:10;" x1="80" x2="80" y1="160" y2="-32"/>
              <line style="fill:none;stroke:#000000;stroke-width:0.25;stroke-miterlimit:10;" x1="84" x2="84" y1="160" y2="-32"/>
              <line style="fill:none;stroke:#000000;stroke-width:0.25;stroke-miterlimit:10;" x1="88" x2="88" y1="160" y2="-32"/>
              <line style="fill:none;stroke:#000000;stroke-width:0.25;stroke-miterlimit:10;" x1="92" x2="92" y1="160" y2="-32"/>
              <line style="fill:none;stroke:#000000;stroke-width:0.25;stroke-miterlimit:10;" x1="96" x2="96" y1="160" y2="-32"/>
              <line style="fill:none;stroke:#000000;stroke-width:0.25;stroke-miterlimit:10;" x1="100" x2="100" y1="160" y2="-32"/>
              <line style="fill:none;stroke:#000000;stroke-width:0.25;stroke-miterlimit:10;" x1="104" x2="104" y1="160" y2="-32"/>
              <line style="fill:none;stroke:#000000;stroke-width:0.25;stroke-miterlimit:10;" x1="108" x2="108" y1="160" y2="-32"/>
              <line style="fill:none;stroke:#000000;stroke-width:0.25;stroke-miterlimit:10;" x1="112" x2="112" y1="160" y2="-32"/>
              <line style="fill:none;stroke:#000000;stroke-width:0.25;stroke-miterlimit:10;" x1="116" x2="116" y1="160" y2="-32"/>
              <line style="fill:none;stroke:#000000;stroke-width:0.25;stroke-miterlimit:10;" x1="120" x2="120" y1="160" y2="-32"/>
              <line style="fill:none;stroke:#000000;stroke-width:0.25;stroke-miterlimit:10;" x1="124" x2="124" y1="160" y2="-32"/>
              <line style="fill:none;stroke:#000000;stroke-width:0.25;stroke-miterlimit:10;" x1="128" x2="128" y1="160" y2="-32"/>
              <line style="fill:none;stroke:#000000;stroke-width:0.25;stroke-miterlimit:10;" x1="132" x2="132" y1="160" y2="-32"/>
              <line style="fill:none;stroke:#000000;stroke-width:0.25;stroke-miterlimit:10;" x1="136" x2="136" y1="160" y2="-32"/>
              <line style="fill:none;stroke:#000000;stroke-width:0.25;stroke-miterlimit:10;" x1="137" x2="137" y1="166.05" y2="-25.95"/>
              <line style="fill:none;stroke:#000000;stroke-width:0.25;stroke-miterlimit:10;" x1="144" x2="144" y1="160" y2="-32"/>
              <line style="fill:none;stroke:#000000;stroke-width:0.25;stroke-miterlimit:10;" x1="148" x2="148" y1="160" y2="-32"/>
              <line style="fill:none;stroke:#000000;stroke-width:0.25;stroke-miterlimit:10;" x1="152" x2="152" y1="160" y2="-32"/>
              <line style="fill:none;stroke:#000000;stroke-width:0.25;stroke-miterlimit:10;" x1="156" x2="156" y1="160" y2="-32"/>
            </g>
            <g>
              <line style="fill:none;stroke:#000000;stroke-width:0.25;stroke-miterlimit:10;" x1="-32" x2="160" y1="-28" y2="-28"/>
              <line style="fill:none;stroke:#000000;stroke-width:0.25;stroke-miterlimit:10;" x1="-32" x2="160" y1="-24" y2="-24"/>
              <line style="fill:none;stroke:#000000;stroke-width:0.25;stroke-miterlimit:10;" x1="-32" x2="160" y1="-20" y2="-20"/>
              <line style="fill:none;stroke:#000000;stroke-width:0.25;stroke-miterlimit:10;" x1="-32" x2="160" y1="-16" y2="-16"/>
              <line style="fill:none;stroke:#000000;stroke-width:0.25;stroke-miterlimit:10;" x1="-32" x2="160" y1="-12" y2="-12"/>
              <line style="fill:none;stroke:#000000;stroke-width:0.25;stroke-miterlimit:10;" x1="-32" x2="160" y1="-8" y2="-8"/>
              <line style="fill:none;stroke:#000000;stroke-width:0.25;stroke-miterlimit:10;" x1="-32" x2="160" y1="-4" y2="-4"/>
              <line style="fill:none;stroke:#000000;stroke-width:0.25;stroke-miterlimit:10;" x1="-32" x2="160" y1="0" y2="0"/>
              <line style="fill:none;stroke:#000000;stroke-width:0.25;stroke-miterlimit:10;" x1="-32" x2="160" y1="4" y2="4"/>
              <line style="fill:none;stroke:#000000;stroke-width:0.25;stroke-miterlimit:10;" x1="-32" x2="160" y1="8" y2="8"/>
              <line style="fill:none;stroke:#000000;stroke-width:0.25;stroke-miterlimit:10;" x1="-32" x2="160" y1="12" y2="12"/>
              <line style="fill:none;stroke:#000000;stroke-width:0.25;stroke-miterlimit:10;" x1="-32" x2="160" y1="16" y2="16"/>
              <line style="fill:none;stroke:#000000;stroke-width:0.25;stroke-miterlimit:10;" x1="-32" x2="160" y1="20" y2="20"/>
              <line style="fill:none;stroke:#000000;stroke-width:0.25;stroke-miterlimit:10;" x1="-32" x2="160" y1="24" y2="24"/>
              <line style="fill:none;stroke:#000000;stroke-width:0.25;stroke-miterlimit:10;" x1="-32" x2="160" y1="28" y2="28"/>
              <line style="fill:none;stroke:#000000;stroke-width:0.25;stroke-miterlimit:10;" x1="-32" x2="160" y1="32" y2="32"/>
              <line style="fill:none;stroke:#000000;stroke-width:0.25;stroke-miterlimit:10;" x1="-32" x2="160" y1="36" y2="36"/>
              <line style="fill:none;stroke:#000000;stroke-width:0.25;stroke-miterlimit:10;" x1="-32" x2="160" y1="40" y2="40"/>
              <line style="fill:none;stroke:#000000;stroke-width:0.25;stroke-miterlimit:10;" x1="-32" x2="160" y1="44" y2="44"/>
              <line style="fill:none;stroke:#000000;stroke-width:0.25;stroke-miterlimit:10;" x1="-32" x2="160" y1="48" y2="48"/>
              <line style="fill:none;stroke:#000000;stroke-width:0.25;stroke-miterlimit:10;" x1="-32" x2="160" y1="52" y2="52"/>
              <line style="fill:none;stroke:#000000;stroke-width:0.25;stroke-miterlimit:10;" x1="-32" x2="160" y1="56" y2="56"/>
              <line style="fill:none;stroke:#000000;stroke-width:0.25;stroke-miterlimit:10;" x1="-32" x2="160" y1="60" y2="60"/>
              <line style="fill:none;stroke:#000000;stroke-width:0.25;stroke-miterlimit:10;" x1="-32" x2="160" y1="64" y2="64"/>
              <line style="fill:none;stroke:#000000;stroke-width:0.25;stroke-miterlimit:10;" x1="-32" x2="160" y1="68" y2="68"/>
              <line style="fill:none;stroke:#000000;stroke-width:0.25;stroke-miterlimit:10;" x1="-32" x2="160" y1="72" y2="72"/>
              <line style="fill:none;stroke:#000000;stroke-width:0.25;stroke-miterlimit:10;" x1="-32" x2="160" y1="76" y2="76"/>
              <line style="fill:none;stroke:#000000;stroke-width:0.25;stroke-miterlimit:10;" x1="-32" x2="160" y1="80" y2="80"/>
              <line style="fill:none;stroke:#000000;stroke-width:0.25;stroke-miterlimit:10;" x1="-32" x2="160" y1="84" y2="84"/>
              <line style="fill:none;stroke:#000000;stroke-width:0.25;stroke-miterlimit:10;" x1="-32" x2="160" y1="88" y2="88"/>
              <line style="fill:none;stroke:#000000;stroke-width:0.25;stroke-miterlimit:10;" x1="-32" x2="160" y1="92" y2="92"/>
              <line style="fill:none;stroke:#000000;stroke-width:0.25;stroke-miterlimit:10;" x1="-32" x2="160" y1="96" y2="96"/>
              <line style="fill:none;stroke:#000000;stroke-width:0.25;stroke-miterlimit:10;" x1="-32" x2="160" y1="100" y2="100"/>
              <line style="fill:none;stroke:#000000;stroke-width:0.25;stroke-miterlimit:10;" x1="-32" x2="160" y1="104" y2="104"/>
              <line style="fill:none;stroke:#000000;stroke-width:0.25;stroke-miterlimit:10;" x1="-32" x2="160" y1="108" y2="108"/>
              <line style="fill:none;stroke:#000000;stroke-width:0.25;stroke-miterlimit:10;" x1="-32" x2="160" y1="112" y2="112"/>
              <line style="fill:none;stroke:#000000;stroke-width:0.25;stroke-miterlimit:10;" x1="-32" x2="160" y1="116" y2="116"/>
              <line style="fill:none;stroke:#000000;stroke-width:0.25;stroke-miterlimit:10;" x1="-32" x2="160" y1="120" y2="120"/>
              <line style="fill:none;stroke:#000000;stroke-width:0.25;stroke-miterlimit:10;" x1="-32" x2="160" y1="124" y2="124"/>
              <line style="fill:none;stroke:#000000;stroke-width:0.25;stroke-miterlimit:10;" x1="-32" x2="160" y1="128" y2="128"/>
              <line style="fill:none;stroke:#000000;stroke-width:0.25;stroke-miterlimit:10;" x1="-32" x2="160" y1="132" y2="132"/>
              <line style="fill:none;stroke:#000000;stroke-width:0.25;stroke-miterlimit:10;" x1="-32" x2="160" y1="136" y2="136"/>
              <line style="fill:none;stroke:#000000;stroke-width:0.25;stroke-miterlimit:10;" x1="-32" x2="160" y1="140" y2="140"/>
              <line style="fill:none;stroke:#000000;stroke-width:0.25;stroke-miterlimit:10;" x1="-32" x2="160" y1="144" y2="144"/>
              <line style="fill:none;stroke:#000000;stroke-width:0.25;stroke-miterlimit:10;" x1="-32" x2="160" y1="148" y2="148"/>
              <line style="fill:none;stroke:#000000;stroke-width:0.25;stroke-miterlimit:10;" x1="-32" x2="160" y1="152" y2="152"/>
              <line style="fill:none;stroke:#000000;stroke-width:0.25;stroke-miterlimit:10;" x1="-32" x2="160" y1="156" y2="156"/>
            </g>
            <path d="M159.75-31.75v191.5h-191.5v-191.5H159.75 M160-32H-32v192h192V-32L160-32z"/>
          </g>
        </g>
        <g>
          <rect height="128" style="opacity:0.3;fill:#F44336;" width="4"/>
          <rect height="128" style="opacity:0.3;fill:#F44336;" width="4" x="124"/>
          <rect height="120" style="opacity:0.3;fill:#F44336;" transform="matrix(-1.836970e-16 1 -1 -1.836970e-16 66 -62)" width="4" x="62" y="-58"/>
          <rect height="120" style="opacity:0.3;fill:#F44336;" transform="matrix(-1.836970e-16 1 -1 -1.836970e-16 190 62)" width="4" x="62" y="66"/>
        </g>
      </g>
    </g>
  </g>
</svg>
